www/assets/icons/offline_share.svg

<svg xmlns="http://www.w3.org/2000/svg" width="24" height="24" viewBox="0 0 24 24" fill='currentColor'><path d="M14.6 10.26v1.31L17 9.33 14.6 7.1v1.28c-2.33.32-3.26 1.92-3.6 3.52.83-1.13 1.93-1.64 3.6-1.64M16 23H6c-1.1 0-2-.9-2-2V5h2v16h10zm2-22h-8c-1.1 0-2 .9-2 2v14c0 1.1.9 2 2 2h8c1.1 0 2-.9 2-2V3c0-1.1-.9-2-2-2m0 15h-8V4h8z"/></svg>

<svg width="24" height="24" viewBox="0 0 24 24" xmlns="http://www.w3.org/2000/svg" fill='currentColor'><path d="M14.6 10.26V11.57L17 9.33L14.6 7.1V8.38C12.27 8.7 11.34 10.3 11 11.9C11.83 10.77 12.93 10.26 14.6 10.26ZM16 23H6C4.9 23 4 22.1 4 21V5H6V21H16V23ZM18 1H10C8.9 1 8 1.9 8 3V17C8 18.1 8.9 19 10 19H18C19.1 19 20 18.1 20 17V3C20 1.9 19.1 1 18 1ZM18 16H10V4H18V16Z"/></svg>
